X:1
T:Awake, Thou That Sleepest
T:Awake, Thou That Sleepest
T:James H. Burke
T:Beatrice M. Hurditch, 1901
T:Public Domain Courtesy of the Cyber Hymnal™
T:Public Domain Courtesy of the Cyber Hymnal™
C:James H. Burke
Z:Public Domain
Z:Courtesy of the Cyber Hymnal™
%%score ( 1 2 ) ( 3 4 )
L:1/8
Q:1/4=100
M:2/4
K:Eb
V:1 treble 
V:2 treble 
V:3 bass 
V:4 bass 
V:1
 [GB] | [GB]3 [GB] | [Ge]3 [GB] | [EA][EG] [B,F][B,E] | [B,E]2 [B,D][B,D] | %5
w: 1.~A-|rise and|shine; O|Christ- ian, do not|slum- ber; Thou|
w: 2.~“A-|rise!” says|Christ, and|lie not in the|sha- dow; Thou|
w: 3.~Rise|up, then,|Christ- ian,|and pur- sue thy|jour- ney, And|
w: 4.~As|ris- ing|sun, when|in His bright- ness|shin- ing Doth|
 [DA]2 [EG]2 [Ec]2 [EB]2 | [EB][EG] E[EG] | [DF]3 [DB] | [EB]3 [GB] | [Ge]3 [EG] | [Ec][EB] | %11
w: may’st not rest too|long to hide the|light; Let|ev- ery|step be|“Christ” a-|
w: dost not ga- ther|pro- fit from such|rest; Leave|not thy|first love|for the|
w: Christ shall be thy|con- fi- dence and|stay; The|light of|His sweet|smile shall|
w: chase the dark- ness|of the night a-|way; So|may thy|path, in|this dark|
 [DA][EG] | [EG]2 [DF][DF] | [CE]2 [DF]2 [EG]2 [GB]2 | [EG][DF] [B,E][B,D] | !fermata![B,E]3 x || %16
w: long thy|path- way, For|it will lead thee|up to Heav- en’s|height.|
w: sake of|plea- sure; To|live to God is|to be tru- ly|blest.|
w: rest up-|on thee, His|pre- sence shall go|with thee all the|way.|
w: world of|sor- row, Shine|more and more un-|til the per- fect|day.|
[M:4/4]"^Refrain" [GB] x2 | e4 (eB)[EG]E | B4 [EB]2 [GB][GB] | c4 [Ad]3 [Ad] | e6 [GB]2 | %21
w: |||||
w: A-|wake, thou * that sleep-|est, And a- rise|from the dead,|And Christ|
w: |||||
w: |||||
 c6 [Ac]2 | ([GB]3 [EG]) E2 [EA]2 | G6 [DF]2 | E6 z2 |] x8 |] %26
w: |||||
w: shall give|thee, * Shall give|thee light.|||
w: |||||
w: |||||
V:2
 x | x4 | x4 | x4 | x4 | x8 | x2 E x | x4 | x4 | x4 | x2 | x2 | x4 | x8 | x4 | x4 ||[M:4/4] x3 | %17
 (G2 G2 G2) E x | (DD D2) x4 | (AA A2) x4 | (G2 A2 G2) x2 | (A2 A2 A2) x2 | x4 E2 x2 | %23
 (E2 E2 D2) x2 | (E2 C2 B,2) x2 |] x8 |] %26
V:3
 [E,B,] | [E,B,]3 [E,B,] | [E,B,]3 [E,B,] | [E,C][E,B,] [E,A,][E,G,] | [B,,G,]2 [B,,F,][B,,F,] | %5
w: ~|~ ~|~ ~|~ ~ ~ ~|~ ~ ~|
 [B,,B,]2 [E,B,]2 A,2 ([G,B,][F,A,]) | [E,G,][E,B,] [G,B,][E,B,] | [B,,B,]3 [B,,A,] | %8
w: ~ ~ ~ ~ *|~ ~ ~ ~|~ ~|
 [E,G,]3 [E,B,] | [E,B,]3 [E,B,] | A,[G,B,] | [F,B,][E,B,] | [B,,B,]2 [B,,B,][B,,A,] | %13
w: ~ ~|~ ~|~ ~|~ ~|~ ~ ~|
 [C,G,]2 [B,,B,]2 x4 | [E,B,]2 [E,B,]2 | [B,,B,][B,,A,] [B,,G,][B,,F,] || !fermata![E,G,]3 | %17
w: ~ ~|~ ~|~ ~ ~ ~|~|
[M:4/4] [E,B,] x7 | [E,B,]2 [E,B,]2 [E,B,]2 [E,B,][E,G,] | %19
w: ~|a- wake, ~ ~ ~|
 [B,,F,][B,,F,] [B,,A,]2 [E,G,]2 [E,B,][E,E] | [A,E][A,E] [A,E]2 [F,B,]2 [F,B,]2 | %21
w: sleep- est a- wake, ~ ~|~ a- rise ~ ~|
 B,2 C2 B,2 [E,E]2 | [A,E]2 [A,E]2 [A,E]2 [A,E]2 | E3 B, [E,G,]2 [A,,C]2 | %24
w: ~ the dead, ~|~ and Christ ~|~ ~ ~ ~|
 [B,,B,]2 [B,,B,]2 [B,,B,]2 [B,,A,]2 |] G,2 A,2 G,2 z2 |] %26
w: ~ shall give ~|give thee light.|
V:4
 x | x4 | x4 | x4 | x4 | x4 A,2 x2 | x4 | x4 | x4 | x4 | A, x | x2 | x4 | x8 | x4 | x4 || x3 | %17
[M:4/4] x8 | x8 | x8 | x8 | E,6 x2 | x8 | E,4 x4 | x8 |] E,6 x2 |] %26

